client/web/src/Assets/images/change.svg

<?xml version="1.0" encoding="utf-8"?>
<svg width="66px" height="95px" viewBox="0 0 66 95" version="1.1" xmlns:xlink="http://www.w3.org/1999/xlink" xmlns="http://www.w3.org/2000/svg">
  <g id="Group">
    <path d="M0.334091 4.12045C-0.111364 4.56591 -0.111364 5.30833 0.334091 5.75379C0.779545 6.19924 1.52197 6.19924 1.96742 5.75379C6.71894 1.15076 14.2917 1.15076 18.8947 5.75379C19.3402 6.19924 20.0826 6.19924 20.528 5.75379C20.9735 5.30833 20.9735 4.56591 20.528 4.12045C15.0341 -1.37348 5.97652 -1.37348 0.334091 4.12045Z" transform="translate(59.451645 42.058594)" id="Path" fill="#000100" stroke="none" />
    <path d="M0.334091 3.11818C-0.111364 3.56364 -0.111364 4.30606 0.334091 4.75151C0.779545 5.19697 1.52197 5.19697 1.96742 4.75151C5.08561 1.63333 10.2826 1.63333 13.5492 4.75151C13.9947 5.19697 14.7371 5.19697 15.1826 4.75151C15.628 4.30606 15.628 3.56364 15.1826 3.11818C10.8765 -1.03939 4.34318 -1.03939 0.334091 3.11818Z" transform="translate(62.272858 45.881836)" id="Path" fill="#000100" stroke="none" />
    <path d="M0.334091 1.89318C-0.111364 2.33864 -0.111364 3.08106 0.334091 3.52652C0.779545 3.97197 1.52197 3.97197 1.96742 3.52652C3.74924 1.7447 6.57045 1.7447 8.20379 3.52652C8.64924 3.97197 9.39167 3.97197 9.83712 3.52652C10.2826 3.08106 10.2826 2.33864 9.83712 1.89318C7.31288 -0.631061 3.00682 -0.631061 0.334091 1.89318Z" transform="translate(64.797104 49.631348)" id="Path" fill="#000100" stroke="none" />
    <path d="M4.45455 2.22705C5.64243 2.22705 6.68183 3.11796 6.68183 4.15735C6.68183 5.04826 5.79092 6.08766 4.45455 6.08766C3.26667 6.08766 2.22728 5.34523 2.22728 4.15735C2.22728 3.11796 3.26667 2.22705 4.45455 2.22705M4.45455 0C2.07879 0 0 1.9303 0 4.15758C0 6.38485 1.9303 8.31515 4.45455 8.31515C6.97879 8.31515 8.90909 6.38485 8.90909 4.15758C8.90909 1.9303 6.8303 0 4.45455 0L4.45455 0Z" transform="translate(44.194824 17.075684)" id="Shape" fill="#000100" stroke="none" />
    <path d="M97.2039 94.7333L93.1948 80.7758L93.1948 25.9848C93.1948 23.9061 91.413 22.2727 89.3342 22.2727L58.3009 22.2727C58.5979 18.5606 58.8948 15.1455 59.0433 13.6606C59.0433 13.5121 58.8948 13.0667 58.7463 12.7697L49.5403 0.445455C49.0948 -0.148485 48.2039 -0.148485 47.7585 0.445455L38.5524 12.6212C38.4039 13.0667 38.2554 13.5121 38.2554 13.8091C38.2554 14.1061 38.7009 19.897 38.9979 22.4212L7.96452 22.4212C5.88573 22.4212 4.10392 24.0545 4.10392 26.1333L4.10392 80.9242L0.0948243 94.8818C-0.35063 96.2182 0.837249 97.5545 2.3221 97.5545L94.9766 97.5545C96.4615 97.5545 97.6494 96.0697 97.2039 94.7333ZM13.013 73.797L13.013 70.5303C14.7948 70.0848 16.4282 69.3424 18.0615 68.4515L22.2191 71.1242C22.6645 71.4212 23.2585 71.4212 23.5554 70.9758L27.416 67.5606C27.8615 67.1152 27.8615 66.5212 27.5645 66.0758L24.7433 62.5121C26.0797 60.7303 26.9706 58.6515 27.416 56.5727L32.316 55.8303C32.91 55.6818 33.2069 55.2364 33.2069 54.7909L33.2069 49.8909C33.2069 49.297 32.7615 48.8515 32.316 48.8515L27.416 48.1091C26.9706 46.0303 26.0797 43.9515 24.7433 42.1697L27.5645 38.6061C27.8615 38.1606 27.8615 37.4182 27.416 37.1212L23.5554 33.5576C23.11 33.2606 22.6645 33.1121 22.2191 33.4091L18.0615 36.0818C16.4282 35.1909 14.7948 34.4485 12.8645 34.003L12.8645 30.7364L39.4433 30.7364L34.3948 35.4879C33.9494 35.9333 33.9494 36.6758 34.3948 37.1212L37.9585 40.3879C38.4039 40.8333 38.9979 40.8333 39.4433 40.3879L41.5221 38.4576C41.8191 39.497 41.9676 40.5364 42.2645 41.4273C42.413 41.8727 42.8585 42.3182 43.3039 42.3182L45.2342 42.3182L45.3827 44.9909L43.3039 44.9909C42.71 44.9909 42.116 45.5849 42.2645 46.1788C42.71 51.8212 42.2645 58.9485 40.7797 64.7394C37.513 64.8879 34.6918 66.8182 33.6524 69.6394C29.6433 68.303 25.1888 70.0848 23.4069 73.797L13.013 73.797ZM22.3676 42.6152C23.8524 44.5455 24.7433 46.7727 25.3372 49.1485C25.4857 49.5939 25.7827 49.8909 26.2282 50.0394L30.9797 50.7818L30.9797 53.7515L26.2282 54.4939C25.7827 54.4939 25.3372 54.9394 25.3372 55.3848C24.8918 57.7606 23.8524 59.9879 22.3676 61.9182C22.0706 62.3636 22.0706 62.9576 22.3676 63.2545L25.0403 66.6697L22.6645 68.897L18.6554 66.2242C18.3585 65.9273 17.7645 65.9273 17.4676 66.2242C16.1312 67.1152 14.6463 67.7091 13.013 68.303L13.013 62.5121C17.0221 60.4333 19.6948 56.5727 19.6948 52.2667C19.6948 47.9606 17.1706 43.9515 13.013 41.8727L13.013 36.0818C14.6463 36.5273 16.1312 37.2697 17.616 38.1606C17.913 38.4576 18.5069 38.4576 18.8039 38.1606L22.813 35.6364L25.1888 37.8636L22.3676 41.2788C22.0706 41.7242 22.0706 42.1697 22.3676 42.6152ZM13.013 44.5455C15.6857 46.3273 17.4676 49.1485 17.4676 52.2667C17.4676 55.3848 15.8342 58.2061 13.013 59.9879L13.013 44.5455ZM49.6888 12.6212L49.6888 4.60303L55.6282 12.4727L49.6888 12.4727L49.6888 12.6212ZM47.4615 12.6212L41.5221 12.6212L47.4615 4.75152L47.4615 12.6212ZM56.6675 14.8485C55.9251 24.6485 55.4797 30.5879 53.1039 39.9424L44.1948 39.9424C41.6706 30.4394 41.3736 24.5 40.6312 14.8485L56.6675 14.8485ZM40.9282 35.9333L38.7009 38.0121L36.7706 36.2303L40.3342 32.9636C40.4827 33.1121 40.9282 35.6364 40.9282 35.9333ZM47.4615 42.1697L49.8372 42.1697L49.5403 46.0303C49.5403 46.0303 49.5403 46.0303 49.5403 46.0303C49.5403 46.0303 49.5403 46.0303 49.5403 46.0303L49.2433 49.5939L48.0554 49.5939L47.4615 42.1697ZM56.9645 32.9636L60.5282 36.2303L58.5979 38.0121L56.2221 35.9333C56.5191 35.1909 56.816 33.8545 56.9645 32.9636ZM33.8009 72.0152C34.3948 72.3121 35.2857 72.0152 35.4342 71.2727C36.0282 68.7485 38.5524 66.8182 41.3736 66.8182L41.5221 66.8182C42.116 66.8182 42.5615 66.5212 42.71 65.9273C44.1948 59.9879 44.7888 53.0091 44.4918 46.9212L45.6797 46.9212L45.9766 50.6333C45.9766 51.2273 46.5706 51.6727 47.016 51.6727L50.1342 51.6727C50.7282 51.6727 51.1736 51.2273 51.1736 50.6333L51.4706 46.9212L52.51 46.9212C52.213 52.8606 52.8069 59.9879 54.2918 65.9273C54.4403 66.5212 54.8857 66.8182 55.4797 66.8182C58.8948 66.8182 61.1221 68.897 61.5676 71.2727C61.716 72.0152 62.4585 72.3121 63.2009 72.0152C66.0221 70.5303 69.4372 71.4212 71.0706 73.797L25.9312 73.797C27.5645 71.4212 30.9797 70.5303 33.8009 72.0152ZM73.8918 73.797C72.11 70.0848 67.6554 68.303 63.6463 69.6394C62.4585 66.9667 59.6372 64.8879 56.5191 64.7394C55.1827 58.8 54.5888 51.8212 55.0342 46.1788C55.0342 45.5849 54.5888 44.9909 53.9948 44.9909L51.916 44.9909L52.213 42.3182L54.1433 42.3182C54.5888 42.3182 55.0342 42.0212 55.1827 41.4273C55.4797 40.5364 55.7766 39.3485 55.9251 38.4576L58.0039 40.3879C58.4494 40.8333 59.0433 40.8333 59.4888 40.3879L63.0524 37.1212C63.4979 36.6758 63.4979 35.9333 63.0524 35.4879L57.8554 30.7364L84.2857 30.7364L84.2857 73.797L73.8918 73.797ZM7.96452 24.6485L39.1463 24.6485C39.2948 26.1333 39.4433 27.3212 39.5918 28.5091L11.8251 28.5091C11.2312 28.5091 10.6372 28.9545 10.6372 29.697C10.6372 46.9212 10.6372 57.3152 10.6372 74.9848C10.6372 75.5788 11.0827 76.1727 11.8251 76.1727L85.3251 76.1727C85.9191 76.1727 86.513 75.7273 86.513 74.9848L86.513 29.5485C86.513 28.9545 86.0675 28.3606 85.3251 28.3606L57.7069 28.3606C57.8554 27.3212 58.0039 25.9848 58.1524 24.5L89.3342 24.5C90.2251 24.5 90.9675 25.0939 90.9675 25.9848L90.9675 79.7364L6.33119 79.7364L6.33119 25.9848C6.33119 25.2424 7.07361 24.6485 7.96452 24.6485ZM2.17361 95.3273L6.03422 81.9636L91.2645 81.9636L95.1251 95.1788C94.9766 95.3273 2.3221 95.3273 2.17361 95.3273Z" id="Shape" fill="#000100" stroke="none" />
    <path d="M23.7007 0.593939C23.5522 0.148485 23.1068 0 22.6613 0L3.65526 0C3.2098 0 2.76435 0.29697 2.61586 0.593939L0.0916218 6.08788C-0.205348 6.8303 0.240107 7.72121 1.13102 7.72121L25.0371 7.72121C25.7795 7.72121 26.3734 6.8303 26.0765 6.08788L23.7007 0.593939ZM2.91283 5.49394L4.39768 2.22727L21.9189 2.22727L23.4037 5.49394L2.91283 5.49394Z" transform="translate(35.491074 84.78467)" id="Shape" fill="#000100" stroke="none" />
  </g>
</svg>

<?xml version="1.0" encoding="utf-8"?>
<!-- Generator: Adobe Illustrator 25.4.1, SVG Export Plug-In . SVG Version: 6.00 Build 0)  -->
<svg version="1.1" id="Calque_1" xmlns="http://www.w3.org/2000/svg" xmlns:xlink="http://www.w3.org/1999/xlink" x="0px" y="0px"
	 viewBox="0 0 97.3 97.55" style="enable-background:new 0 0 97.3 97.55;" xml:space="preserve">
<style type="text/css">
	.st0{fill:#000100;}
</style>
<g id="shape-change">
	<path id="Path" class="st0" d="M59.79,46.18c-0.45,0.45-0.45,1.19,0,1.63c0.45,0.45,1.19,0.45,1.63,0c4.75-4.6,12.32-4.6,16.93,0
		c0.45,0.45,1.19,0.45,1.63,0c0.45-0.45,0.45-1.19,0-1.63C74.49,40.68,65.43,40.68,59.79,46.18z"/>
	<path id="Path_00000073681743958645563110000009280095752069448081_" class="st0" d="M62.61,49c-0.45,0.45-0.45,1.19,0,1.63
		c0.45,0.45,1.19,0.45,1.63,0c3.12-3.12,8.32-3.12,11.58,0c0.45,0.45,1.19,0.45,1.63,0c0.45-0.45,0.45-1.19,0-1.63
		C73.15,44.84,66.62,44.84,62.61,49z"/>
	<path id="Path_00000023254874824967012270000015899631604939763105_" class="st0" d="M65.13,51.52c-0.45,0.45-0.45,1.19,0,1.63
		c0.45,0.45,1.19,0.45,1.63,0c1.78-1.78,4.6-1.78,6.24,0c0.45,0.45,1.19,0.45,1.63,0c0.45-0.45,0.45-1.19,0-1.63
		C72.11,49,67.8,49,65.13,51.52z"/>
	<path id="Shape" class="st0" d="M48.65,19.3c1.19,0,2.23,0.89,2.23,1.93c0,0.89-0.89,1.93-2.23,1.93c-1.19,0-2.23-0.74-2.23-1.93
		C46.42,20.19,47.46,19.3,48.65,19.3 M48.65,17.08c-2.38,0-4.45,1.93-4.45,4.16c0,2.23,1.93,4.16,4.45,4.16
		c2.52,0,4.45-1.93,4.45-4.16C53.1,19.01,51.03,17.08,48.65,17.08L48.65,17.08z"/>
	<path id="Shape_00000101811479838157297290000011818674496677499811_" class="st0" d="M97.2,94.73l-4.01-13.96V25.98
		c0-2.08-1.78-3.71-3.86-3.71H58.3c0.3-3.71,0.59-7.13,0.74-8.61c0-0.15-0.15-0.59-0.3-0.89L49.54,0.45c-0.45-0.59-1.34-0.59-1.78,0
		l-9.21,12.18c-0.15,0.45-0.3,0.89-0.3,1.19S38.7,19.9,39,22.42H7.96c-2.08,0-3.86,1.63-3.86,3.71v54.79L0.09,94.88
		c-0.45,1.34,0.74,2.67,2.23,2.67h92.65C96.46,97.55,97.65,96.07,97.2,94.73z M13.01,73.8v-3.27c1.78-0.45,3.42-1.19,5.05-2.08
		l4.16,2.67c0.45,0.3,1.04,0.3,1.34-0.15l3.86-3.42c0.45-0.45,0.45-1.04,0.15-1.48l-2.82-3.56c1.34-1.78,2.23-3.86,2.67-5.94
		l4.9-0.74c0.59-0.15,0.89-0.59,0.89-1.04v-4.9c0-0.59-0.45-1.04-0.89-1.04l-4.9-0.74c-0.45-2.08-1.34-4.16-2.67-5.94l2.82-3.56
		c0.3-0.45,0.3-1.19-0.15-1.48l-3.86-3.56c-0.45-0.3-0.89-0.45-1.34-0.15l-4.16,2.67c-1.63-0.89-3.27-1.63-5.2-2.08v-3.27h26.58
		l-5.05,4.75c-0.45,0.45-0.45,1.19,0,1.63l3.56,3.27c0.45,0.45,1.04,0.45,1.48,0l2.08-1.93c0.3,1.04,0.45,2.08,0.74,2.97
		c0.15,0.45,0.59,0.89,1.04,0.89h1.93l0.15,2.67H43.3c-0.59,0-1.19,0.59-1.04,1.19c0.45,5.64,0,12.77-1.48,18.56
		c-3.27,0.15-6.09,2.08-7.13,4.9c-4.01-1.34-8.46,0.45-10.25,4.16H13.01z M22.37,42.62c1.48,1.93,2.38,4.16,2.97,6.53
		c0.15,0.45,0.45,0.74,0.89,0.89l4.75,0.74v2.97l-4.75,0.74c-0.45,0-0.89,0.45-0.89,0.89c-0.45,2.38-1.48,4.6-2.97,6.53
		c-0.3,0.45-0.3,1.04,0,1.34l2.67,3.42l-2.38,2.23l-4.01-2.67c-0.3-0.3-0.89-0.3-1.19,0c-1.34,0.89-2.82,1.48-4.45,2.08v-5.79
		c4.01-2.08,6.68-5.94,6.68-10.25c0-4.31-2.52-8.32-6.68-10.39v-5.79c1.63,0.45,3.12,1.19,4.6,2.08c0.3,0.3,0.89,0.3,1.19,0
		l4.01-2.52l2.38,2.23l-2.82,3.42C22.07,41.72,22.07,42.17,22.37,42.62z M13.01,44.55c2.67,1.78,4.45,4.6,4.45,7.72
		c0,3.12-1.63,5.94-4.45,7.72V44.55z M49.69,12.62V4.6l5.94,7.87h-5.94V12.62z M47.46,12.62h-5.94l5.94-7.87V12.62z M56.67,14.85
		c-0.74,9.8-1.19,15.74-3.56,25.09h-8.91c-2.52-9.5-2.82-15.44-3.56-25.09H56.67z M40.93,35.93l-2.23,2.08l-1.93-1.78l3.56-3.27
		C40.48,33.11,40.93,35.64,40.93,35.93z M47.46,42.17h2.38l-0.3,3.86l0,0l0,0l-0.3,3.56h-1.19L47.46,42.17z M56.96,32.96l3.56,3.27
		l-1.93,1.78l-2.38-2.08C56.52,35.19,56.82,33.85,56.96,32.96z M33.8,72.02c0.59,0.3,1.48,0,1.63-0.74
		c0.59-2.52,3.12-4.45,5.94-4.45h0.15c0.59,0,1.04-0.3,1.19-0.89c1.48-5.94,2.08-12.92,1.78-19.01h1.19l0.3,3.71
		c0,0.59,0.59,1.04,1.04,1.04h3.12c0.59,0,1.04-0.45,1.04-1.04l0.3-3.71h1.04c-0.3,5.94,0.3,13.07,1.78,19.01
		c0.15,0.59,0.59,0.89,1.19,0.89c3.42,0,5.64,2.08,6.09,4.45c0.15,0.74,0.89,1.04,1.63,0.74c2.82-1.48,6.24-0.59,7.87,1.78H25.93
		C27.56,71.42,30.98,70.53,33.8,72.02z M73.89,73.8c-1.78-3.71-6.24-5.49-10.25-4.16c-1.19-2.67-4.01-4.75-7.13-4.9
		c-1.34-5.94-1.93-12.92-1.48-18.56c0-0.59-0.45-1.19-1.04-1.19h-2.08l0.3-2.67h1.93c0.45,0,0.89-0.3,1.04-0.89
		c0.3-0.89,0.59-2.08,0.74-2.97L58,40.39c0.45,0.45,1.04,0.45,1.48,0l3.56-3.27c0.45-0.45,0.45-1.19,0-1.63l-5.2-4.75h26.43V73.8
		H73.89z M7.96,24.65h31.18c0.15,1.48,0.3,2.67,0.45,3.86H11.83c-0.59,0-1.19,0.45-1.19,1.19c0,17.22,0,27.62,0,45.29
		c0,0.59,0.45,1.19,1.19,1.19h73.5c0.59,0,1.19-0.45,1.19-1.19V29.55c0-0.59-0.45-1.19-1.19-1.19H57.71
		c0.15-1.04,0.3-2.38,0.45-3.86h31.18c0.89,0,1.63,0.59,1.63,1.48v53.75H6.33V25.98C6.33,25.24,7.07,24.65,7.96,24.65z M2.17,95.33
		l3.86-13.36h85.23l3.86,13.22C94.98,95.33,2.32,95.33,2.17,95.33z"/>
	<path id="Shape_00000047028118931567685220000002363973099354982302_" class="st0" d="M59.19,85.38c-0.15-0.45-0.59-0.59-1.04-0.59
		H39.15c-0.45,0-0.89,0.3-1.04,0.59l-2.52,5.49c-0.3,0.74,0.15,1.63,1.04,1.63h23.91c0.74,0,1.34-0.89,1.04-1.63L59.19,85.38z
		 M38.4,90.28l1.48-3.27h17.52l1.48,3.27H38.4z"/>
</g>
</svg>
